X:1
T:Title
L:1/8
Q:1/4=120
M:2/2
K:C
V:1 treble nm="Part_1"
V:1
 A4- A F2 D- | D3 E F A2 _B- B4- BcAB- | B6 z2 | B4- BcA_B- | B3 A c B2 A- | A4- A_BGA- | A4 z4 | %7
 z2 z _A- A c2 _e- | e c2 e d2 c_B | (6:4:3G4- G_BFG- x2 | G4 z4 | z2 z G- G _B2 d- | %12
 d _B2 d _d2 BA- | A4 A_BGA- | A4 z4 | d2 A2- A F2 D- | D4 z4 | d2 _B2- B G2 D- | D4 z4 | %19
 d2 _B2- B d2 _d | d3 A c2 _BA- | A8 | z8 | z4 FG_A_B | c_AGF B_B=A_A | G4 z4 | z8 | z4 EFGA | %28
 _B3 A (3c=B!^!_B _A x | A4- AGFG- | G4- GFEF- |!>(! !>!!wedge!F4 F E2 D-!>)! | D6 z2 | %33
 _B4- B G2 D- | D6 z2 | _B4- B G2 _D | D4 z _B_A=A- | A4- A F2 D- | D6 z2 | _A4- AGFA- | A4 AGFG- | %41
 (6:4:3G4- GF_EG- x2 | G4 z4 | G4- GFEG- G4- GFEF- | F6 z2 | z8 | !^!A2 A2 z dzA | z2 z G z A- A2 | %48
 _B2 B2 z dzB | z8 | !>!!wedge!G2 G2 z _Bz!>!G | z2 z _B z G- G2 | A2 A2 z _BzA | z8 | %54
 z2 z A _AAzA- | AGFA- A4 | (6:4:3G4- GF_EG- G4 z4 | !wedge!G4- GFEG- | G4- GFEF- | F4 FEDF- | %60
 F4 z4 |] %61

